X:1
T:G Major Oliver Holden, 1800
T:Isaac Watts, 1719 (Hymn 64, Book 2)  88. 88. (L. M.)
T:Lodi No copyright. Transcribed from Plain Psalmody, 1800.
%%score [ 1 2 3 ]
L:1/8
M:4/4
K:G
V:1 treble nm="Treble" snm="Tr."
V:2 treble-8 nm="Tenor" snm="T."
V:3 bass nm="Bass" snm="B."
V:1
 d4 c2 B2 | B2 A2 G2 A2 | B4 z4 | z8 | z8 | z4 d4 | ^c2 d2 A2 g2 | f4 e4 | d4 z4 | z8 | z8 | z8 | %12
w: 1.~Hap- py the|church, thou sac- red|place,|||Thine|ho- ly courts are|His a-|bode,||||
 d4 B2 B2 | G2 G2 B2 c2 | d3 d e2 d2 | g2 e2 d2 ^c2 | d6 z2 | z8 | z8 | z8 | z8 | z4 z2 d2 | %22
w: ||||||||||
 G2 g2 e2 c2 | B4 A4 | G8 |] %25
w: |||
V:2
 z8 | z8 | z4 B4 | c2 B2 e2 d2 | c4 B4 | A4 z4 | z8 | z8 | z4 d4 | e2 dB dg ec | B4 A4 | G8 | %12
w: ||The|seat of Thy Cre-|a- tor's|grace;|||Thou|earth- ly * pal- * ace *|of our|God.|
 B4 G2 B2 | d2 d2 g2 f2 | g3 B c2 d2 | d2 c2 A2 G2 | A6 A2 | BA Bc d2 c2 | BA Bc d2 [df]2 | %19
w: Thy walls are|strength, and at thy|gates A guard of|heav'n- ly war- riors|waits; Nor|shall * thy * deep foun-|da- * tions * move, Built|
 g2 f2 e2 d2 | (e2 d2) (c2 B2) | A6 A2 | B2 B2 c2 e2 | d4 c4 | B8 |] %25
w: on thy jus- tice,|and * thy *|love, Built|on thy jus- tice,|and thy|love.|
V:3
 (G,2 B,2) A,2 G,2 | G,2 D,2 B,,2 D,2 | G,4 G,4 | F,2 G,2 C2 B,2 | A,4 G,4 | D,4 D,4 | %6
w: 1.~Hao- * py the|church, thou sac- red|place, *|||* Thine|
 A,,2 D,2 F,2 G,2 | A,4 A,4 | D,4 G,4 | G,2 G,2 B,,2 C,2 | D,4 D,4 | B,,8 | G,4 G,2 G,2 | %13
w: ho- ly courts are|His a-|bode, *|||||
 G,2 G,2 G,2 A,2 | B,3 G, C2 B,2 | G,2 G,2 A,2 A,2 | D,6 D,2 | G,F, G,A, B,2 A,2 | %18
w: |||||
 G,F, G,A, B,2 D2 | E2 D2 C2 B,2 | (C2 B,2) (A,2 G,2) | D,6 D,2 | B,,2 G,,2 C,2 C,2 | D,4 D,4 | %24
w: ||||||
 G,,8 |] %25
w: |

